build/images/icons/tambir.svg

<svg xmlns="http://www.w3.org/2000/svg" width="10" height="17"><path d="M10.009 15.145c-.68.321-1.297.548-1.849.678a7.792 7.792 0 01-1.789.195 4.863 4.863 0 01-1.718-.276 4.18 4.18 0 01-1.431-.79c-.396-.343-.669-.708-.823-1.092-.152-.386-.228-.944-.228-1.677V6.569H.007V4.302c.626-.204 1.351-.497 1.796-.879a4.363 4.363 0 001.075-1.375c.27-.534.457-1.213.558-2.04h2.265v3.704h3.682v2.857H5.701v4.105c0 .929-.012 1.464.086 1.727.097.262.341.534.607.691a2.3 2.3 0 001.209.319c.806 0 1.608-.264 2.406-.791v2.525z"/></svg>

<svg 
 xmlns="http://www.w3.org/2000/svg"
 xmlns:xlink="http://www.w3.org/1999/xlink"
 width="10px" height="17px">
<path 
 d="M10.009,15.145 C9.329,15.466 8.712,15.693 8.160,15.823 C7.608,15.953 7.012,16.018 6.371,16.018 C5.642,16.018 5.213,15.926 4.653,15.742 C4.094,15.557 3.617,15.292 3.222,14.952 C2.826,14.609 2.553,14.244 2.399,13.860 C2.247,13.474 2.171,12.916 2.171,12.183 L2.171,6.569 L0.007,6.569 L0.007,4.302 C0.633,4.098 1.358,3.805 1.803,3.423 C2.251,3.041 2.608,2.584 2.878,2.048 C3.148,1.514 3.335,0.835 3.436,0.008 L5.701,0.008 L5.701,3.712 L9.383,3.712 L9.383,6.569 L5.701,6.569 L5.701,10.674 C5.701,11.603 5.689,12.138 5.787,12.401 C5.884,12.663 6.128,12.935 6.394,13.092 C6.747,13.304 7.149,13.411 7.603,13.411 C8.409,13.411 9.211,13.147 10.009,12.620 L10.009,15.145 Z"/>
</svg>
